;FLAVOR:Marlin
;TIME:3815
;Filament used: 4.48028m
;Layer height: 0.2
;MINX:46.987
;MINY:101.77
;MINZ:0.3
;MAXX:172.419
;MAXY:120.17
;MAXZ:14.3
;Generated with Cura_SteamEngine 4.1.0
M140 S60
M105
M190 S60
M104 S200
M105
M109 S200
M82 ;absolute extrusion mode
G21 ;metric values
G90 ;absolute positioning
M82 ;set extruder to absolute mode
M107 ;start with the fan off
G28 X0 Y0 ;move X/Y to min endstops
G28 Z0 ;move Z to min endstops
G1 Z15.0 F9000 ;move the platform down 15mm
G92 E0 ;zero the extruded length
G1 F200 E3 ;extrude 3mm of feed stock
G92 E0 ;zero the extruded length again
G1 F9000;Put printing message on LCD screen
M117 Printing..0
G92 E0
G92 E0
G1 F1500 E-6.5
;LAYER_COUNT:71
;LAYER:0
M107
G0 F3600 X51.456 Y103.082 Z0.3
;TYPE:SKIRT
G1 F1500 E0
G1 F1800 X52.397 Y102.63 E0.05208
G1 X52.477 Y102.593 E0.05648
G1 X53.074 Y102.326 E0.08911
G1 X53.55 Y102.157 E0.11431
G1 X53.848 Y102.092 E0.12952
G1 X54.643 Y101.958 E0.16975
G1 X54.734 Y101.944 E0.17434
G1 X55.61 Y101.822 E0.21846
G1 X55.984 Y101.792 E0.23718
G1 X56.848 Y101.774 E0.2803
G1 X56.905 Y101.773 E0.28314
G1 X57.91 Y101.77 E0.33328
G1 X88.959 Y101.77 E1.88232
G1 X89.665 Y101.78 E1.91755
G1 X89.802 Y101.785 E1.92439
G1 X92.515 Y101.939 E2.05996
G1 X95.267 Y102.018 E2.19731
G1 X97.986 Y102.018 E2.33296
G1 X100.734 Y101.941 E2.47012
G1 X102.504 Y101.841 E2.55856
G1 X102.546 Y101.839 E2.56066
G1 X103.076 Y101.816 E2.58713
G1 X103.169 Y101.813 E2.59177
G1 X103.937 Y101.802 E2.63009
G1 X103.982 Y101.802 E2.63233
G1 X115.875 Y101.8 E3.22568
G1 X115.92 Y101.8 E3.22792
G1 X116.652 Y101.81 E3.26445
G1 X116.746 Y101.813 E3.26914
G1 X117.116 Y101.829 E3.28762
G1 X117.178 Y101.832 E3.29071
G1 X118.214 Y101.897 E3.3425
G1 X120.932 Y101.99 E3.47818
G1 X123.685 Y102.008 E3.61553
G1 X126.428 Y101.947 E3.75241
G1 X128.499 Y101.85 E3.85585
G1 X128.499 Y101.849 E3.8559
G1 X129.62 Y101.784 E3.91192
G1 X129.712 Y101.78 E3.91652
G1 X130.022 Y101.771 E3.93199
G1 X130.115 Y101.77 E3.93663
G1 X162.624 Y101.77 E5.55851
G1 X163.321 Y101.78 E5.59329
G1 X163.693 Y101.807 E5.61189
G1 X164.656 Y101.934 E5.66035
G1 X164.736 Y101.946 E5.66439
G1 X165.415 Y102.053 E5.69868
G1 X165.907 Y102.171 E5.72393
G1 X166.165 Y102.267 E5.73766
G1 X166.76 Y102.519 E5.7699
G1 X166.819 Y102.545 E5.77311
G1 X167.143 Y102.69 E5.79082
G1 X167.183 Y102.708 E5.79301
G1 X167.823 Y103.005 E5.82821
G1 X168.263 Y103.254 E5.85343
G1 X168.526 Y103.45 E5.8698
G1 X169.285 Y104.083 E5.91911
G1 X169.344 Y104.135 E5.92303
G1 X169.879 Y104.604 E5.95852
G1 X170.232 Y104.966 E5.98375
G1 X170.429 Y105.229 E6.00014
G1 X170.983 Y106.056 E6.0498
G1 X171.029 Y106.127 E6.05403
G1 X171.412 Y106.733 E6.08979
G1 X171.648 Y107.181 E6.11505
G1 X171.76 Y107.483 E6.13112
G1 X172.061 Y108.44 E6.18117
G1 X172.085 Y108.52 E6.18534
G1 X172.273 Y109.177 E6.21943
G1 X172.373 Y109.672 E6.24463
G1 X172.395 Y109.985 E6.26028
G1 X172.418 Y111 E6.31093
G1 X172.419 Y111.095 E6.31567
G1 X172.414 Y111.793 E6.3505
G1 X172.37 Y112.297 E6.37574
G1 X172.304 Y112.603 E6.39136
G1 X172.096 Y113.374 E6.4312
G1 X172.074 Y113.45 E6.43514
G1 X171.817 Y114.317 E6.48026
G1 X171.636 Y114.789 E6.50548
G1 X171.477 Y115.08 E6.52202
G1 X171.048 Y115.78 E6.56298
G1 X171.006 Y115.847 E6.56693
G1 X170.527 Y116.587 E6.61091
G1 X170.22 Y116.988 E6.6361
G1 X169.99 Y117.219 E6.65237
G1 X169.391 Y117.762 E6.6927
G1 X169.327 Y117.819 E6.69698
G1 X168.648 Y118.402 E6.74163
G1 X168.239 Y118.7 E6.76687
G1 X167.948 Y118.859 E6.78342
G1 X167.017 Y119.306 E6.83494
G1 X166.941 Y119.341 E6.83912
G1 X166.334 Y119.613 E6.8723
G1 X165.857 Y119.783 E6.89756
G1 X165.545 Y119.85 E6.91348
G1 X164.555 Y120.013 E6.96354
G1 X164.466 Y120.027 E6.96804
G1 X163.753 Y120.124 E7.00393
G1 X163.409 Y120.152 E7.02115
G1 X162.892 Y120.166 E7.04696
G1 X162.825 Y120.167 E7.0503
G1 X162.355 Y120.17 E7.07375
G1 X130.354 Y120.17 E8.67028
G1 X129.749 Y120.16 E8.70047
G1 X129.211 Y120.105 E8.72745
G1 X128.062 Y119.889 E8.78578
G1 X125.388 Y119.422 E8.92121
G1 X122.626 Y119.02 E9.06046
G1 X119.958 Y118.707 E9.19448
G1 X117.179 Y118.462 E9.33366
G1 X114.468 Y118.299 E9.46915
G1 X111.75 Y118.214 E9.60482
G1 X110.024 Y118.199 E9.69094
G1 X109.365 Y118.199 E9.72381
G1 X106.568 Y118.239 E9.86337
G1 X103.851 Y118.354 E9.99904
G1 X101.105 Y118.549 E10.13639
G1 X98.399 Y118.817 E10.27205
G1 X95.676 Y119.165 E10.40901
G1 X92.989 Y119.587 E10.5447
G1 X90.279 Y120.093 E10.68224
G1 X89.867 Y120.142 E10.70294
G1 X89.466 Y120.164 E10.72298
G1 X89.291 Y120.169 E10.73171
G1 X56.83 Y120.17 E12.3512
G1 X56.784 Y120.17 E12.35349
G1 X56.088 Y120.16 E12.38822
G1 X55.721 Y120.133 E12.40658
G1 X54.783 Y120.011 E12.45377
G1 X54.695 Y119.999 E12.4582
G1 X53.976 Y119.885 E12.49452
G1 X53.484 Y119.766 E12.51978
G1 X53.221 Y119.667 E12.5338
G1 X52.654 Y119.425 E12.56455
G1 X52.603 Y119.403 E12.56732
G1 X52.261 Y119.25 E12.58602
G1 X52.218 Y119.23 E12.58838
G1 X51.58 Y118.933 E12.62349
G1 X51.139 Y118.684 E12.64876
G1 X50.881 Y118.49 E12.66486
G1 X50.105 Y117.843 E12.71527
G1 X50.044 Y117.791 E12.71927
G1 X49.524 Y117.335 E12.75377
G1 X49.172 Y116.973 E12.77896
G1 X48.975 Y116.709 E12.7954
G1 X48.422 Y115.883 E12.84499
G1 X48.375 Y115.811 E12.84928
G1 X47.992 Y115.204 E12.88509
G1 X47.757 Y114.756 E12.91033
G1 X47.645 Y114.455 E12.92635
G1 X47.344 Y113.497 E12.97645
G1 X47.319 Y113.413 E12.98082
G1 X47.128 Y112.741 E13.01567
G1 X47.029 Y112.245 E13.04091
G1 X47.007 Y111.927 E13.05681
G1 X46.988 Y110.929 E13.10661
G1 X46.987 Y110.845 E13.1108
G1 X46.992 Y110.147 E13.14563
G1 X47.036 Y109.643 E13.17087
G1 X47.102 Y109.338 E13.18643
G1 X47.315 Y108.547 E13.2273
G1 X47.337 Y108.47 E13.2313
G1 X47.588 Y107.623 E13.27537
G1 X47.769 Y107.151 E13.30059
G1 X47.928 Y106.86 E13.31714
G1 X48.351 Y106.17 E13.35751
G1 X48.392 Y106.104 E13.36139
G1 X48.877 Y105.354 E13.40595
G1 X49.184 Y104.953 E13.43115
G1 X49.417 Y104.719 E13.44762
G1 X50.026 Y104.168 E13.48859
G1 X50.087 Y104.114 E13.49266
G1 X50.756 Y103.539 E13.53667
G1 X51.164 Y103.241 E13.56188
G1 X51.456 Y103.082 E13.57846
G1 F1500 E7.07846
;MESH:BufferToFCG_Right.STL
G0 F3600 X52.643 Y105.312
G0 X53.184 Y106.475
G0 X55.724 Y107.259
;TYPE:WALL-INNER
G1 F1500 E13.57846
G1 F1800 X55.725 Y107.258 E13.57853
G1 X56.279 Y107.177 E13.60647
G1 X55.901 Y107.591 E13.62126
G1 X55.454 Y108.082 E13.65439
G1 X54.726 Y109.96 E13.75488
G1 X54.724 Y111.958 E13.85456
G1 X55.454 Y113.858 E13.9561
G1 X55.911 Y114.359 E13.98994
G1 X56.285 Y114.77 E14.01766
G1 X55.735 Y114.692 E14.03233
G1 X55.096 Y114.6 E14.06454
G1 X54.098 Y114.153 E14.11909
G1 X53.292 Y113.466 E14.17193
G1 X52.7 Y112.559 E14.22597
G1 X52.393 Y111.537 E14.2792
G1 X52.384 Y110.466 E14.33264
G1 X52.682 Y109.423 E14.38676
G1 X53.253 Y108.521 E14.44002
G1 X54.056 Y107.816 E14.49333
G1 X55.027 Y107.363 E14.54678
G1 X55.724 Y107.259 E14.58194
G0 F3600 X60.004 Y107.105
G0 X64.177 Y107.273
G1 F1800 X64.04 Y107.17 E14.59049
G1 X64.177 Y107.17 E14.59098
G1 X64.443 Y107.17 E14.60425
G1 X69.298 Y107.17 E14.84647
G1 X69.565 Y107.17 E14.85979
G1 X69.702 Y107.17 E14.86663
G1 X69.565 Y107.273 E14.86882
G1 X69.425 Y107.499 E14.87776
G1 X68.5 Y108.988 E14.96521
G1 X68.133 Y110.97 E15.06578
G1 X68.5 Y112.952 E15.16634
G1 X69.425 Y114.441 E15.25379
G1 X69.565 Y114.667 E15.26706
G1 X69.7 Y114.769 E15.2755
G1 X69.566 Y114.769 E15.27594
G1 X69.299 Y114.769 E15.28494
G1 X64.445 Y114.769 E15.5271
G1 X64.178 Y114.769 E15.54042
G1 X64.04 Y114.77 E15.54731
G1 X64.177 Y114.667 E15.54945
G1 X64.317 Y114.44 E15.55841
G1 X65.236 Y112.953 E15.64562
G1 X65.609 Y110.97 E15.74629
G1 X65.236 Y108.987 E15.84696
G1 X64.316 Y107.499 E15.93424
G1 X64.177 Y107.273 E15.94318
G0 F3600 X73.261 Y107.087
G0 X74.415 Y107.193
G0 X78.287 Y108.082
G1 F1800 X77.76 Y107.504 E15.9822
G1 X77.456 Y107.17 E16.00474
G1 X77.907 Y107.17 E16.01695
G1 X77.908 Y107.17 E16.017
G1 X87.421 Y107.17 E16.4916
G1 X87.421 Y114.769 E16.87072
G1 X77.909 Y114.769 E17.34527
G1 X77.908 Y114.769 E17.34532
G1 X77.457 Y114.769 E17.36782
G1 X77.761 Y114.435 E17.38005
G1 X78.287 Y113.858 E17.419
G1 X78.977 Y112.077 E17.51429
G1 X79.08 Y110.991 E17.56872
G1 X78.977 Y109.867 E17.62503
G1 X78.287 Y108.082 E17.72051
G0 F3600 X76.682 Y106.914
G1 F1800 X76.392 Y106.77 E17.73666
G1 X76.682 Y106.77 E17.73892
G1 X76.971 Y106.77 E17.75333
G1 X87.821 Y106.77 E18.29464
G1 X87.821 Y115.169 E18.71367
G1 X76.972 Y115.169 E19.25493
G1 X76.682 Y115.169 E19.2694
G1 X76.394 Y115.169 E19.28377
G1 X76.682 Y115.026 E19.28764
G1 X76.877 Y114.812 E19.29783
G1 X77.941 Y113.644 E19.37665
G1 X78.584 Y111.984 E19.46547
G1 X78.678 Y110.99 E19.51528
G1 X78.584 Y109.959 E19.56693
G1 X77.941 Y108.296 E19.65588
G1 X76.876 Y107.127 E19.73478
G1 X76.682 Y106.914 E19.74494
G0 F3600 X73.261 Y107.087
G0 X72.021 Y107.44
G0 X68.88 Y109.135
G1 F1800 X68.54 Y110.97 E19.83805
G1 X68.88 Y112.805 E19.93116
G1 X69.865 Y114.393 E20.02439
G1 X70.418 Y114.81 E20.05894
G1 X70.895 Y115.169 E20.08872
G1 X70.298 Y115.169 E20.10439
G1 X63.442 Y115.17 E20.44644
G1 X63.441 Y115.17 E20.44649
G1 X62.845 Y115.17 E20.47622
G1 X63.321 Y114.811 E20.49187
G1 X63.876 Y114.393 E20.52653
G1 X64.857 Y112.806 E20.61961
G1 X65.202 Y110.97 E20.71281
G1 X64.857 Y109.134 E20.80602
G1 X63.876 Y107.547 E20.8991
G1 X63.321 Y107.129 E20.93376
G1 X62.845 Y106.77 E20.96351
G1 X63.441 Y106.77 E20.97915
G1 X63.442 Y106.77 E20.9792
G1 X70.299 Y106.77 E21.32129
G1 X70.3 Y106.77 E21.32134
G1 X70.896 Y106.77 E21.35108
G1 X70.42 Y107.129 E21.36672
G1 X69.865 Y107.547 E21.40139
G1 X68.88 Y109.135 E21.49462
G0 F3600 X60.48 Y107.087
G0 X57.059 Y106.914
G1 F1800 X56.861 Y107.132 E21.50931
G1 X55.8 Y108.296 E21.58789
G1 X55.126 Y110.035 E21.68093
G1 X55.124 Y111.884 E21.77318
G1 X55.8 Y113.644 E21.86724
G1 X56.865 Y114.813 E21.94614
G1 X57.059 Y115.026 E21.96051
G1 X57.349 Y115.17 E21.97666
G1 X57.059 Y115.17 E21.97892
G1 X56.77 Y115.17 E21.98913
G1 X56.251 Y115.17 E22.01503
G1 X54.983 Y114.988 E22.07893
G1 X53.885 Y114.496 E22.13896
G1 X52.987 Y113.731 E22.19782
G1 X52.334 Y112.73 E22.25744
G1 X51.994 Y111.597 E22.31646
G1 X51.983 Y110.41 E22.37568
G1 X52.313 Y109.259 E22.43542
G1 X52.946 Y108.258 E22.49451
G1 X53.835 Y107.477 E22.55354
G1 X54.91 Y106.976 E22.61271
G1 X56.233 Y106.777 E22.67946
G1 X56.763 Y106.775 E22.7059
G1 X57.058 Y106.774 E22.71625
G1 X57.346 Y106.772 E22.73062
G1 X57.059 Y106.914 E22.7344
G0 F3600 X56.287 Y110.253
G0 X56.146 Y113.43
G1 F1800 X57.304 Y114.701 E22.82019
G1 X58.28 Y115.186 E22.87456
G1 X58.842 Y115.465 E22.90586
G1 X59.971 Y115.57 E22.96243
G1 X58.842 Y115.57 E22.96978
G1 X58.214 Y115.57 E22.98987
G1 X56.222 Y115.57 E23.08925
G1 X54.87 Y115.376 E23.15739
G1 X53.669 Y114.838 E23.22305
G1 X52.683 Y113.997 E23.28771
G1 X51.968 Y112.901 E23.35299
G1 X51.594 Y111.657 E23.4178
G1 X51.583 Y110.354 E23.48281
G1 X51.943 Y109.095 E23.54814
G1 X52.639 Y107.994 E23.61312
G1 X53.614 Y107.138 E23.67785
G1 X54.794 Y106.589 E23.74278
G1 X56.198 Y106.377 E23.81362
G1 X57.697 Y106.37 E23.88841
G1 X58.214 Y106.37 E23.9142
G1 X58.842 Y106.37 E23.94553
G1 X59.972 Y106.37 E24.00191
G1 X58.842 Y106.475 E24.00947
G1 X58.28 Y106.754 E24.02952
G1 X57.304 Y107.239 E24.0839
G1 X56.146 Y108.51 E24.16968
G1 X55.526 Y110.11 E24.25529
G1 X55.524 Y111.81 E24.3401
G1 X56.146 Y113.43 E24.42668
G0 F3600 X59.054 Y114.721
G0 X60.48 Y114.853
G0 X61.858 Y114.46
G0 X69.26 Y109.282
G1 F1800 X68.947 Y110.97 E24.51233
G1 X69.26 Y112.658 E24.59798
G1 X70.166 Y114.119 E24.68374
G1 X71.538 Y115.153 E24.76945
G1 X71.622 Y115.177 E24.77381
G1 X72.997 Y115.569 E24.84515
G1 X71.568 Y115.569 E24.88113
G1 X71.567 Y115.569 E24.88118
G1 X62.171 Y115.57 E25.34995
G1 X62.17 Y115.57 E25.35
G1 X60.743 Y115.57 E25.42119
G1 X62.116 Y115.178 E25.45715
G1 X62.203 Y115.153 E25.46166
G1 X63.575 Y114.119 E25.54737
G1 X64.478 Y112.659 E25.63302
G1 X64.795 Y110.97 E25.71875
G1 X64.478 Y109.281 E25.80449
G1 X63.575 Y107.821 E25.89014
G1 X62.203 Y106.787 E25.97585
G1 X62.116 Y106.762 E25.98036
G1 X60.742 Y106.37 E26.05165
G1 X62.17 Y106.37 E26.08761
G1 X62.171 Y106.37 E26.08766
G1 X71.57 Y106.37 E26.55657
G1 X71.571 Y106.37 E26.55662
G1 X72.999 Y106.37 E26.62787
G1 X71.625 Y106.762 E26.66385
G1 X71.538 Y106.787 E26.66836
G1 X70.166 Y107.821 E26.75407
G1 X69.26 Y109.282 E26.83984
G0 F3600 X69.983 Y112.378
G0 X70.739 Y113.597
G0 X71.883 Y114.46
G0 X73.261 Y114.853
G0 X76.437 Y114.701
G1 F1800 X77.595 Y113.43 E26.92562
G1 X78.191 Y111.891 E27.00796
G1 X78.276 Y110.989 E27.05316
G1 X78.191 Y110.051 E27.10015
G1 X77.595 Y108.51 E27.18258
G1 X76.437 Y107.239 E27.26836
G1 X75.461 Y106.754 E27.32274
G1 X74.899 Y106.475 E27.35404
G1 X73.769 Y106.37 E27.41066
G1 X74.899 Y106.37 E27.41801
G1 X75.527 Y106.37 E27.43811
G1 X88.221 Y106.37 E28.07141
G1 X88.221 Y115.569 E28.53035
G1 X75.529 Y115.569 E29.16356
G1 X74.899 Y115.569 E29.19499
G1 X73.775 Y115.569 E29.25107
G1 X74.899 Y115.465 E29.25852
G1 X75.463 Y115.185 E29.2786
G1 X76.437 Y114.701 E29.33287
G0 F3600 X73.261 Y114.853
G0 X71.883 Y114.46
G0 X70.739 Y113.597
G0 X69.983 Y112.378
G0 X69.772 Y111.238
G0 X69.64 Y109.429
G1 F1800 X69.354 Y110.97 E29.41106
G1 X69.64 Y112.511 E29.48925
G1 X70.467 Y113.845 E29.56756
G1 X71.719 Y114.789 E29.64579
G1 X73.226 Y115.219 E29.72397
G1 X74.788 Y115.074 E29.80224
G1 X76.192 Y114.376 E29.88046
G1 X77.249 Y113.216 E29.95875
G1 X77.798 Y111.798 E30.03462
G1 X77.874 Y110.988 E30.0752
G1 X77.798 Y110.143 E30.11753
G1 X77.249 Y108.724 E30.19344
G1 X76.192 Y107.564 E30.27174
G1 X74.788 Y106.866 E30.34996
G1 X73.226 Y106.721 E30.42822
G1 X71.719 Y107.151 E30.50641
G1 X70.467 Y108.095 E30.58464
G1 X69.64 Y109.429 E30.66294
G0 F3600 X61.858 Y114.46
G0 X60.48 Y114.853
G0 X59.054 Y114.721
G0 X58.015 Y114.204
G0 X56.492 Y113.216
G1 F1800 X57.549 Y114.376 E30.74124
G1 X58.953 Y115.074 E30.81946
G1 X60.515 Y115.219 E30.89773
G1 X62.022 Y114.789 E30.97591
G1 X63.274 Y113.845 E31.05414
G1 X64.099 Y112.512 E31.13235
G1 X64.388 Y110.97 E31.21062
G1 X64.099 Y109.428 E31.28889
G1 X63.274 Y108.095 E31.3671
G1 X62.022 Y107.151 E31.44533
G1 X60.515 Y106.721 E31.52351
G1 X58.953 Y106.866 E31.60178
G1 X57.549 Y107.564 E31.68
G1 X56.492 Y108.724 E31.7583
G1 X55.926 Y110.185 E31.83646
G1 X55.924 Y111.736 E31.91384
G1 X56.492 Y113.216 E31.99293
G0 F3600 X57.77 Y114.082
G0 X59.054 Y114.721
G0 X60.48 Y114.853
G0 X73.261 Y114.853
G0 X74.544 Y114.735
G0 X88.621 Y109.861
G1 F1800 X96.621 Y109.861 E32.39205
G1 X96.621 Y110.138 E32.40587
G1 X88.621 Y110.139 E32.68276
G1 X88.621 Y115.969 E32.97362
G1 X56.193 Y115.97 E34.59146
G1 X54.757 Y115.764 E34.66384
G1 X53.456 Y115.181 E34.73497
G1 X52.379 Y114.263 E34.80557
G1 X51.601 Y113.07 E34.87662
G1 X51.195 Y111.717 E34.9471
G1 X51.182 Y110.298 E35.0179
G1 X51.574 Y108.931 E35.08885
G1 X52.332 Y107.731 E35.15966
G1 X53.393 Y106.799 E35.23011
G1 X54.678 Y106.201 E35.30082
G1 X56.164 Y105.977 E35.3758
G1 X57.695 Y105.97 E35.45218
G1 X88.621 Y105.97 E36.99508
G1 X88.621 Y109.861 E37.18921
G0 F3600 X89.021 Y109.461
G1 F1800 X97.021 Y109.461 E37.58833
G1 X97.021 Y110.538 E37.64206
G1 X89.021 Y110.539 E38.04118
G1 X89.021 Y116.369 E38.33204
G1 X56.164 Y116.37 E39.97128
G1 X54.644 Y116.152 E40.04789
G1 X53.24 Y115.523 E40.12465
G1 X52.075 Y114.529 E40.20105
G1 X51.235 Y113.241 E40.27777
G1 X50.795 Y111.777 E40.35403
G1 X50.782 Y110.242 E40.43062
G1 X51.204 Y108.767 E40.50716
G1 X52.024 Y107.47 E40.58371
G1 X53.174 Y106.459 E40.66011
G1 X54.562 Y105.814 E40.73647
G1 X56.129 Y105.577 E40.81553
G1 X57.693 Y105.57 E40.89356
G1 X89.021 Y105.57 E42.45652
G1 X89.021 Y109.461 E42.65065
G0 F3600 X88.951 Y109.531
G0 X74.687 Y107.219
G0 X73.261 Y107.087
G0 X71.883 Y107.48
G0 X70.739 Y108.343
G0 X69.927 Y109.54
