;FLAVOR:Marlin
;TIME:2877
;Filament used: 1.71078m
;Layer height: 0.1
;MINX:92.328
;MINY:88.325
;MINZ:0.3
;MAXX:127.386
;MAXY:131.675
;MAXZ:6.3
;Generated with Cura_SteamEngine 4.1.0
M140 S60
M105
M190 S60
M104 S200
M105
M109 S200
M82 ;absolute extrusion mode
G21 ;metric values
G90 ;absolute positioning
M82 ;set extruder to absolute mode
M107 ;start with the fan off
G28 X0 Y0 ;move X/Y to min endstops
G28 Z0 ;move Z to min endstops
G1 Z15.0 F9000 ;move the platform down 15mm
G92 E0 ;zero the extruded length
G1 F200 E3 ;extrude 3mm of feed stock
G92 E0 ;zero the extruded length again
G1 F9000;Put printing message on LCD screen
M117 Printing..0
G92 E0
G92 E0
G1 F1500 E-6.5
;LAYER_COUNT:61
;LAYER:0
M107
G0 F3600 X95.507 Y91.368 Z0.3
;TYPE:SKIRT
G1 F1500 E0
G1 F1800 X95.583 Y91.291 E0.0054
G1 X96.11 Y90.773 E0.04226
G1 X96.653 Y90.334 E0.0771
G1 X97.169 Y89.994 E0.10793
G1 X97.256 Y89.939 E0.11307
G1 X97.925 Y89.525 E0.15232
G1 X98.553 Y89.216 E0.18723
G1 X99.181 Y88.98 E0.2207
G1 X99.284 Y88.943 E0.22616
G1 X99.996 Y88.7 E0.2637
G1 X100.68 Y88.539 E0.29876
G1 X101.336 Y88.451 E0.33178
G1 X101.44 Y88.439 E0.337
G1 X102.165 Y88.363 E0.37337
G1 X102.479 Y88.344 E0.38906
G1 X103.311 Y88.33 E0.43058
G1 X103.368 Y88.329 E0.43342
G1 X107.391 Y88.325 E0.63413
G1 X107.448 Y88.325 E0.63697
G1 X108.336 Y88.338 E0.68128
G1 X111.079 Y88.338 E0.81813
G1 X111.447 Y88.33 E0.83649
G1 X111.498 Y88.329 E0.83904
G1 X112.025 Y88.325 E0.86533
G1 X112.055 Y88.325 E0.86683
G1 X116.47 Y88.329 E1.08709
G1 X116.522 Y88.329 E1.08969
G1 X117.182 Y88.339 E1.12262
G1 X117.498 Y88.358 E1.13841
G1 X118.25 Y88.436 E1.17613
G1 X118.352 Y88.448 E1.18126
G1 X119.024 Y88.537 E1.21507
G1 X119.706 Y88.696 E1.25001
G1 X120.367 Y88.92 E1.28483
G1 X120.469 Y88.957 E1.29024
G1 X121.137 Y89.206 E1.32581
G1 X121.755 Y89.506 E1.36008
G1 X122.317 Y89.849 E1.39293
G1 X122.412 Y89.909 E1.39854
G1 X123.05 Y90.326 E1.43656
G1 X123.599 Y90.767 E1.4717
G1 X124.078 Y91.236 E1.50514
G1 X124.148 Y91.307 E1.51011
G1 X124.661 Y91.838 E1.54695
G1 X125.095 Y92.384 E1.58175
G1 X125.443 Y92.922 E1.61371
G1 X125.505 Y93.021 E1.61954
G1 X125.907 Y93.689 E1.65844
G1 X126.204 Y94.312 E1.69287
G1 X126.421 Y94.907 E1.72447
G1 X126.457 Y95.009 E1.72986
G1 X126.699 Y95.74 E1.76828
G1 X126.849 Y96.389 E1.80151
G1 X126.925 Y96.951 E1.82981
G1 X126.939 Y97.075 E1.83603
G1 X127.004 Y97.726 E1.86867
G1 X127.02 Y97.959 E1.88032
G1 X127.063 Y99.192 E1.94188
G1 X127.065 Y99.267 E1.94562
G1 X127.386 Y122.27 E3.09336
G1 X127.386 Y123.029 E3.13122
G1 X127.366 Y123.411 E3.15031
G1 X127.303 Y124.001 E3.17991
G1 X127.288 Y124.119 E3.18584
G1 X127.192 Y124.804 E3.22035
G1 X127.078 Y125.328 E3.24711
G1 X126.985 Y125.601 E3.26149
G1 X126.675 Y126.404 E3.30444
G1 X126.633 Y126.509 E3.31008
G1 X126.458 Y126.923 E3.3325
G1 X126.213 Y127.4 E3.35926
G1 X126.042 Y127.654 E3.37453
G1 X125.541 Y128.335 E3.41671
G1 X125.474 Y128.423 E3.42223
G1 X125.184 Y128.793 E3.44568
G1 X124.823 Y129.189 E3.47242
G1 X124.594 Y129.388 E3.48755
G1 X123.941 Y129.908 E3.5292
G1 X123.845 Y129.982 E3.53525
G1 X123.46 Y130.268 E3.55917
G1 X123.007 Y130.555 E3.58593
G1 X122.747 Y130.68 E3.60032
G1 X121.987 Y131.01 E3.64166
G1 X121.876 Y131.056 E3.64765
G1 X121.418 Y131.237 E3.67222
G1 X120.906 Y131.396 E3.69897
G1 X120.626 Y131.45 E3.7132
G1 X119.888 Y131.56 E3.75042
G1 X119.78 Y131.574 E3.75585
G1 X119.214 Y131.641 E3.78429
G1 X118.902 Y131.664 E3.7999
G1 X118.675 Y131.671 E3.81123
G1 X118.565 Y131.673 E3.81672
G1 X112.327 Y131.675 E4.12793
G1 X112.275 Y131.675 E4.13053
G1 X111.354 Y131.662 E4.17648
G1 X108.604 Y131.662 E4.31368
G1 X108.224 Y131.67 E4.33264
G1 X108.179 Y131.671 E4.33489
G1 X107.714 Y131.675 E4.35809
G1 X101.569 Y131.675 E4.66466
G1 X100.872 Y131.665 E4.69944
G1 X100.588 Y131.649 E4.71363
G1 X100.332 Y131.625 E4.72646
G1 X100.213 Y131.612 E4.73243
G1 X99.844 Y131.565 E4.75099
G1 X99.78 Y131.556 E4.75421
G1 X99.142 Y131.463 E4.78638
G1 X98.618 Y131.347 E4.81315
G1 X98.347 Y131.252 E4.82748
G1 X97.656 Y130.981 E4.86451
G1 X97.549 Y130.938 E4.87026
G1 X97.037 Y130.718 E4.89807
G1 X96.561 Y130.47 E4.92484
G1 X96.321 Y130.307 E4.93932
G1 X95.647 Y129.81 E4.9811
G1 X95.549 Y129.735 E4.98725
G1 X95.179 Y129.442 E5.0108
G1 X94.785 Y129.079 E5.03753
G1 X94.597 Y128.862 E5.05185
G1 X94.086 Y128.22 E5.09279
G1 X94.01 Y128.12 E5.09906
G1 X93.716 Y127.723 E5.1237
G1 X93.43 Y127.27 E5.15043
G1 X93.303 Y127.005 E5.16509
G1 X92.97 Y126.232 E5.20708
G1 X92.925 Y126.124 E5.21292
G1 X92.753 Y125.686 E5.2364
G1 X92.595 Y125.173 E5.26318
G1 X92.541 Y124.885 E5.27779
G1 X92.426 Y124.09 E5.31787
G1 X92.411 Y123.969 E5.32395
G1 X92.35 Y123.415 E5.35176
G1 X92.328 Y123.021 E5.37145
G1 X92.328 Y122.337 E5.40557
G1 X92.655 Y98.928 E6.57356
G1 X92.656 Y98.878 E6.57606
G1 X92.671 Y98.338 E6.60301
G1 X92.685 Y98.11 E6.61441
G1 X92.782 Y97.05 E6.66751
G1 X92.795 Y96.931 E6.67348
G1 X92.855 Y96.452 E6.69757
G1 X93.001 Y95.794 E6.73119
G1 X93.178 Y95.245 E6.75997
G1 X93.213 Y95.14 E6.76549
G1 X93.496 Y94.347 E6.8075
G1 X93.793 Y93.716 E6.84229
G1 X94.1 Y93.2 E6.87225
G1 X94.161 Y93.102 E6.87801
G1 X94.602 Y92.412 E6.91886
G1 X95.035 Y91.861 E6.95383
G1 X95.507 Y91.368 E6.98788
G0 F3600 X95.796 Y91.645
G1 F1800 X95.864 Y91.576 E6.99271
G1 X96.391 Y91.058 E7.02958
G1 X96.873 Y90.668 E7.06051
G1 X97.389 Y90.328 E7.09134
G1 X97.466 Y90.279 E7.09589
G1 X98.135 Y89.865 E7.13514
G1 X98.693 Y89.591 E7.16616
G1 X99.321 Y89.355 E7.19963
G1 X99.413 Y89.322 E7.2045
G1 X100.125 Y89.079 E7.24204
G1 X100.734 Y88.935 E7.27326
G1 X101.39 Y88.847 E7.30628
G1 X101.481 Y88.836 E7.31085
G1 X102.206 Y88.76 E7.34722
G1 X102.486 Y88.743 E7.36122
G1 X103.318 Y88.729 E7.40273
G1 X103.369 Y88.729 E7.40527
G1 X107.392 Y88.725 E7.60598
G1 X107.442 Y88.725 E7.60848
G1 X108.33 Y88.738 E7.65278
G1 X111.087 Y88.738 E7.79033
G1 X111.501 Y88.729 E7.81099
G1 X112.028 Y88.725 E7.83728
G1 X112.055 Y88.725 E7.83863
G1 X116.47 Y88.729 E8.0589
G1 X116.515 Y88.729 E8.06114
G1 X117.175 Y88.739 E8.09407
G1 X117.457 Y88.756 E8.10817
G1 X118.209 Y88.834 E8.14589
G1 X118.299 Y88.845 E8.15041
G1 X118.971 Y88.934 E8.18423
G1 X119.578 Y89.075 E8.21532
G1 X120.239 Y89.299 E8.25014
G1 X120.33 Y89.332 E8.25497
G1 X120.998 Y89.581 E8.29053
G1 X121.547 Y89.848 E8.32099
G1 X122.109 Y90.191 E8.35384
G1 X122.193 Y90.243 E8.35877
G1 X122.831 Y90.66 E8.39679
G1 X123.319 Y91.053 E8.42805
G1 X123.798 Y91.522 E8.4615
G1 X123.86 Y91.585 E8.46591
G1 X124.373 Y92.116 E8.50274
G1 X124.759 Y92.601 E8.53367
G1 X125.107 Y93.139 E8.56563
G1 X125.162 Y93.227 E8.57081
G1 X125.564 Y93.895 E8.60971
G1 X125.828 Y94.449 E8.64032
G1 X126.045 Y95.044 E8.67192
G1 X126.077 Y95.134 E8.67669
G1 X126.319 Y95.865 E8.7151
G1 X126.452 Y96.442 E8.74465
G1 X126.528 Y97.004 E8.77294
G1 X126.541 Y97.115 E8.77851
G1 X126.606 Y97.766 E8.81115
G1 X126.62 Y97.972 E8.82146
G1 X126.663 Y99.205 E8.88301
G1 X126.665 Y99.272 E8.88635
G1 X126.986 Y122.275 E10.03409
G1 X126.986 Y123.029 E10.07171
G1 X126.968 Y123.369 E10.08869
G1 X126.905 Y123.959 E10.11829
G1 X126.892 Y124.063 E10.12352
G1 X126.796 Y124.748 E10.15803
G1 X126.612 Y125.456 E10.19453
G1 X126.302 Y126.259 E10.23747
G1 X126.264 Y126.353 E10.24253
G1 X126.089 Y126.767 E10.26495
G1 X125.72 Y127.417 E10.30224
G1 X125.219 Y128.098 E10.34442
G1 X125.16 Y128.176 E10.3493
G1 X124.87 Y128.546 E10.37275
G1 X124.344 Y129.075 E10.40997
G1 X123.691 Y129.595 E10.45162
G1 X123.606 Y129.661 E10.45699
G1 X123.221 Y129.947 E10.48092
G1 X122.588 Y130.313 E10.51739
G1 X121.828 Y130.643 E10.55873
G1 X121.729 Y130.684 E10.56408
G1 X121.271 Y130.865 E10.58865
G1 X120.567 Y131.054 E10.62501
G1 X119.829 Y131.164 E10.66224
G1 X119.733 Y131.177 E10.66707
G1 X119.167 Y131.244 E10.69551
G1 X118.89 Y131.264 E10.70936
G1 X118.663 Y131.271 E10.72069
G1 X118.565 Y131.273 E10.72558
G1 X112.327 Y131.275 E11.0368
G1 X112.281 Y131.275 E11.03909
G1 X111.36 Y131.262 E11.08505
G1 X108.595 Y131.262 E11.22299
G1 X108.215 Y131.27 E11.24196
G1 X108.176 Y131.271 E11.2439
G1 X107.711 Y131.275 E11.2671
G1 X101.575 Y131.275 E11.57323
G1 X100.878 Y131.265 E11.60801
G1 X100.625 Y131.251 E11.62065
G1 X100.369 Y131.227 E11.63347
G1 X100.264 Y131.215 E11.63875
G1 X99.895 Y131.168 E11.65731
G1 X99.837 Y131.161 E11.66022
G1 X99.199 Y131.068 E11.69239
G1 X98.493 Y130.88 E11.72884
G1 X97.802 Y130.609 E11.76587
G1 X97.707 Y130.57 E11.77099
G1 X97.195 Y130.35 E11.79879
G1 X96.559 Y129.986 E11.83535
G1 X95.885 Y129.489 E11.87713
G1 X95.797 Y129.422 E11.88265
G1 X95.427 Y129.129 E11.9062
G1 X94.91 Y128.613 E11.94264
G1 X94.399 Y127.971 E11.98357
G1 X94.331 Y127.882 E11.98916
G1 X94.037 Y127.485 E12.01381
G1 X93.67 Y126.847 E12.05053
G1 X93.337 Y126.074 E12.09252
G1 X93.297 Y125.978 E12.09771
G1 X93.125 Y125.54 E12.12119
G1 X92.937 Y124.828 E12.15792
G1 X92.822 Y124.033 E12.198
G1 X92.808 Y123.925 E12.20343
G1 X92.747 Y123.371 E12.23124
G1 X92.728 Y123.021 E12.24873
G1 X92.728 Y122.342 E12.2826
G1 X93.055 Y98.933 E13.4506
G1 X93.056 Y98.889 E13.45279
G1 X93.071 Y98.349 E13.47974
G1 X93.083 Y98.146 E13.48989
G1 X93.18 Y97.086 E13.54299
G1 X93.192 Y96.98 E13.54831
G1 X93.252 Y96.501 E13.5724
G1 X93.381 Y95.917 E13.60224
G1 X93.558 Y95.368 E13.63102
G1 X93.59 Y95.274 E13.63597
G1 X93.873 Y94.481 E13.67798
G1 X94.137 Y93.921 E13.70886
G1 X94.444 Y93.405 E13.73882
G1 X94.498 Y93.318 E13.74393
G1 X94.939 Y92.628 E13.78478
G1 X95.324 Y92.138 E13.81587
G1 X95.796 Y91.645 E13.84992
G1 F1500 E7.34992
;MESH:FrontTakeDownPinShaft.STL(1)
G0 F3600 X96.353 Y95.136
G0 X97.444 Y95.813
G0 X98.394 Y103.459
;TYPE:WALL-INNER
G1 F1500 E13.84992
G1 F1800 X98.399 Y103.031 E13.87128
G1 X98.723 Y103.311 E13.88296
G1 X98.848 Y103.42 E13.89123
G1 X99.228 Y103.708 E13.91502
G1 X100.504 Y104.293 E13.98505
G1 X100.764 Y104.383 E13.99878
G1 X100.777 Y104.387 E13.99946
G1 X100.962 Y104.451 E14.00922
G1 X101.808 Y104.572 E14.05186
G1 X101.002 Y104.699 E14.06425
G1 X100.651 Y104.755 E14.07929
G1 X100.639 Y104.761 E14.07995
G1 X99.392 Y105.394 E14.14972
G1 X98.987 Y105.667 E14.17409
G1 X98.701 Y105.954 E14.1943
G1 X98.353 Y106.304 E14.21893
G1 X98.358 Y105.811 E14.23214
G1 X98.359 Y105.81 E14.23221
G1 X98.393 Y103.46 E14.34946
G1 X98.394 Y103.459 E14.34953
G0 F3600 X104.086 Y104.773
G1 F1800 X103.053 Y104.602 E14.40177
G1 X104.049 Y104.479 E14.41993
G1 X104.319 Y104.445 E14.43351
G1 X105.892 Y103.747 E14.51937
G1 X105.892 Y105.586 E14.61111
G1 X105.892 Y105.865 E14.62503
G1 X105.612 Y105.586 E14.63463
G1 X104.132 Y104.798 E14.71767
G1 X104.086 Y104.773 E14.71924
G0 F3600 X99.985 Y106.877
G0 X99.234 Y107.63
G0 X98.652 Y108.727
G0 X98.485 Y109.725
G0 X98.247 Y113.992
G1 F1800 X98.252 Y113.522 E14.74269
G1 X98.585 Y113.854 E14.75534
G1 X99.073 Y114.339 E14.78967
G1 X100.599 Y115.152 E14.87593
G1 X102.331 Y115.439 E14.96352
G1 X104.034 Y115.17 E15.04954
G1 X105.293 Y114.531 E15.11998
G1 X105.538 Y114.365 E15.13474
G1 X105.698 Y114.258 E15.14434
G1 X105.892 Y114.063 E15.15807
G1 X105.892 Y114.257 E15.15954
G1 X105.892 Y114.45 E15.16699
G1 X105.892 Y117.561 E15.3222
G1 X105.892 Y117.66 E15.32714
G1 X105.893 Y117.941 E15.34116
G1 X105.612 Y117.661 E15.35076
G1 X105.525 Y117.615 E15.35504
G1 X104.086 Y116.848 E15.43639
G1 X102.353 Y116.56 E15.52404
G1 X100.651 Y116.83 E15.61001
G1 X99.392 Y117.469 E15.68045
G1 X98.987 Y117.742 E15.70482
G1 X98.529 Y118.202 E15.7372
G1 X98.181 Y118.552 E15.76183
G1 X98.187 Y118.059 E15.77502
G1 X98.188 Y118.058 E15.77509
G1 X98.246 Y113.993 E15.97792
G1 X98.247 Y113.992 E15.97799
G0 F3600 X97.772 Y119.178
G1 F1800 X97.86 Y112.933 E16.28958
G1 X97.863 Y112.705 E16.30096
G1 X97.87 Y112.219 E16.32521
G1 X98.12 Y112.71 E16.33563
G1 X98.247 Y112.899 E16.34505
G1 X98.357 Y113.062 E16.35486
G1 X99.313 Y114.014 E16.42217
G1 X100.729 Y114.768 E16.5022
G1 X102.333 Y115.034 E16.58332
G1 X103.909 Y114.785 E16.66292
G1 X105.09 Y114.185 E16.72901
G1 X105.442 Y113.948 E16.75018
G1 X105.951 Y113.437 E16.78617
G1 X106.292 Y113.094 E16.8103
G1 X106.292 Y113.577 E16.82326
G1 X106.292 Y113.578 E16.82331
G1 X106.293 Y118.422 E17.06497
G1 X106.293 Y118.423 E17.06502
G1 X106.293 Y118.903 E17.08897
G1 X105.952 Y118.564 E17.10188
G1 X105.372 Y117.986 E17.14273
G1 X103.956 Y117.232 E17.22276
G1 X102.351 Y116.965 E17.30394
G1 X100.776 Y117.215 E17.3835
G1 X99.595 Y117.815 E17.44959
G1 X99.243 Y118.052 E17.47076
G1 X98.291 Y119.008 E17.53807
G1 X98.149 Y119.275 E17.55316
G1 X98.148 Y119.276 E17.55323
G1 X97.761 Y120.004 E17.59436
G1 X97.771 Y119.18 E17.6155
G1 X97.772 Y119.178 E17.61561
G0 F3600 X98.637 Y123.241
G0 X99.257 Y124.395
G0 X100.01 Y125.146
G0 X101.107 Y125.728
G0 X102.104 Y125.894
G0 X105.442 Y126.023
G1 F1800 X105.567 Y125.897 E17.62447
G1 X105.952 Y125.511 E17.65167
G1 X106.293 Y125.168 E17.6758
G1 X106.293 Y125.651 E17.68876
G1 X106.293 Y125.652 E17.68881
G1 X106.293 Y126.275 E17.71989
G1 X105.62 Y126.275 E17.75346
G1 X105.442 Y126.275 E17.76083
G1 X105.09 Y126.275 E17.77839
G1 X105.06 Y126.275 E17.77989
G1 X105.09 Y126.26
G1 X105.442 Y126.023 E17.78872
G0 F3600 X106.033 Y123.273
G0 X106.239 Y122.04
G0 X106.239 Y109.966
G0 X106.048 Y108.759
G0 X103.956 Y105.157
G1 F1800 X102.351 Y104.891 E17.86988
G1 X100.776 Y105.14 E17.94944
G1 X99.595 Y105.74 E18.01553
G1 X99.243 Y105.977 E18.0367
G1 X98.336 Y106.887 E18.1008
G1 X98.291 Y106.933 E18.10401
G1 X97.935 Y107.601 E18.14177
G1 X97.944 Y106.928 E18.15573
G1 X97.944 Y106.863 E18.15877
G1 X98.006 Y102.585 E18.37223
G1 X98.011 Y102.199 E18.39149
G1 X98.012 Y102.138 E18.39453
G1 X98.052 Y102.2 E18.39513
G1 X98.343 Y102.452 E18.40649
G1 X99.1 Y103.109 E18.45649
G1 X99.435 Y103.363 E18.47747
G1 X100.653 Y103.921 E18.54431
G1 X101.056 Y104.06 E18.56558
G1 X102.501 Y104.267 E18.6384
G1 X104.211 Y104.055 E18.72437
G1 X105.805 Y103.348 E18.81136
G1 X105.964 Y103.214 E18.82174
G1 X106.292 Y102.935 E18.84322
G1 X106.292 Y103.365 E18.85493
G1 X106.292 Y103.366 E18.85498
G1 X106.292 Y106.346 E19.00366
G1 X106.292 Y106.347 E19.00371
G1 X106.292 Y106.827 E19.02765
G1 X105.952 Y106.488 E19.04055
G1 X105.372 Y105.911 E19.08137
G1 X103.956 Y105.157 E19.16141
G0 F3600 X97.623 Y101.464
G1 F1800 X97.631 Y100.8 E19.19453
G1 X97.989 Y101.36 E19.2118
G1 X98.358 Y101.936 E19.24593
G1 X99.352 Y102.798 E19.31157
G1 X99.642 Y103.018 E19.32973
G1 X100.802 Y103.549 E19.39338
G1 X101.15 Y103.669 E19.41174
G1 X102.505 Y103.863 E19.48003
G1 X104.103 Y103.665 E19.56037
G1 X105.59 Y103.006 E19.64151
G1 X106.364 Y102.349 E19.69216
G1 X106.692 Y102.071 E19.71362
G1 X106.692 Y102.5 E19.7253
G1 X106.692 Y102.502 E19.7254
G1 X106.692 Y107.514 E19.97545
G1 X106.692 Y107.515 E19.9755
G1 X106.692 Y108.349 E20.01711
G1 X106.314 Y107.605 E20.0385
G1 X106.219 Y107.418 E20.04897
G1 X106.018 Y107.119 E20.06694
G1 X105.132 Y106.236 E20.12935
G1 X103.826 Y105.541 E20.20315
G1 X102.349 Y105.296 E20.27785
G1 X100.901 Y105.525 E20.35099
G1 X99.798 Y106.086 E20.41273
G1 X99.499 Y106.287 E20.4307
G1 X98.616 Y107.173 E20.49311
G1 X97.921 Y108.478 E20.56687
G1 X97.921 Y108.479 E20.56692
G1 X97.675 Y109.956 E20.64162
G1 X97.881 Y111.253 E20.70714
G1 X97.905 Y111.404 E20.71477
G1 X98.466 Y112.507 E20.77651
G1 X98.667 Y112.806 E20.79448
G1 X99.553 Y113.689 E20.85689
G1 X100.859 Y114.384 E20.9307
G1 X102.335 Y114.629 E21.00534
G1 X103.784 Y114.4 E21.07853
G1 X104.887 Y113.839 E21.14027
G1 X105.186 Y113.638 E21.15824
G1 X106.069 Y112.752 E21.22065
G1 X106.316 Y112.288 E21.24687
G1 X106.692 Y111.581 E21.28682
G1 X106.692 Y112.381 E21.30737
G1 X106.692 Y112.382 E21.30742
G1 X106.693 Y119.591 E21.66707
G1 X106.693 Y119.592 E21.66712
G1 X106.693 Y120.424 E21.70863
G1 X106.315 Y119.682 E21.72998
G1 X106.219 Y119.493 E21.74056
