;FLAVOR:Marlin
;TIME:1453
;Filament used: 1.35666m
;Layer height: 0.2
;MINX:80.061
;MINY:102.9
;MINZ:0.3
;MAXX:139.939
;MAXY:130.374
;MAXZ:19.9
;Generated with Cura_SteamEngine 4.1.0
M140 S60
M105
M190 S60
M104 S200
M105
M109 S200
M82 ;absolute extrusion mode
G21 ;metric values
G90 ;absolute positioning
M82 ;set extruder to absolute mode
M107 ;start with the fan off
G28 X0 Y0 ;move X/Y to min endstops
G28 Z0 ;move Z to min endstops
G1 Z15.0 F9000 ;move the platform down 15mm
G92 E0 ;zero the extruded length
G1 F200 E3 ;extrude 3mm of feed stock
G92 E0 ;zero the extruded length again
G1 F9000;Put printing message on LCD screen
M117 Printing..0
G92 E0
G92 E0
G1 F1500 E-6.5
;LAYER_COUNT:99
;LAYER:0
M107
G0 F3600 X81.455 Y103.671 Z0.3
;TYPE:SKIRT
G1 F1500 E0
G1 F1800 X81.902 Y103.373 E0.0268
G1 X82.387 Y103.145 E0.05354
G1 X82.901 Y102.992 E0.08029
G1 X83.569 Y102.91 E0.11387
G1 X83.89 Y102.901 E0.12989
G1 X83.991 Y102.9 E0.13493
G1 X135.684 Y102.9 E2.71391
G1 X136.382 Y102.91 E2.74873
G1 X136.916 Y102.958 E2.77548
G1 X137.437 Y103.084 E2.80222
G1 X137.934 Y103.287 E2.82901
G1 X138.395 Y103.561 E2.85576
G1 X138.81 Y103.9 E2.8825
G1 X139.17 Y104.298 E2.90927
G1 X139.467 Y104.744 E2.936
G1 X139.695 Y105.23 E2.96279
G1 X139.847 Y105.744 E2.98953
G1 X139.929 Y106.409 E3.02296
G1 X139.938 Y106.729 E3.03893
G1 X139.939 Y106.83 E3.04397
G1 X139.939 Y112.814 E3.34251
G1 X139.929 Y113.541 E3.37878
G1 X139.881 Y114.075 E3.40553
G1 X139.755 Y114.596 E3.43227
G1 X139.553 Y115.093 E3.45904
G1 X139.279 Y115.554 E3.48579
G1 X138.94 Y115.969 E3.51253
G1 X138.543 Y116.33 E3.5393
G1 X137.922 Y116.72 E3.57588
G1 X137.472 Y116.942 E3.60092
G1 X135.872 Y117.692 E3.68908
G1 X133.432 Y118.924 E3.82545
G1 X131.037 Y120.218 E3.96126
G1 X128.649 Y121.597 E4.09883
G1 X126.362 Y123.007 E4.23288
G1 X124.073 Y124.507 E4.36941
G1 X121.837 Y126.067 E4.50543
G1 X119.655 Y127.68 E4.64081
G1 X117.221 Y129.594 E4.79529
G1 X116.776 Y129.893 E4.82203
G1 X116.291 Y130.123 E4.84881
G1 X115.778 Y130.278 E4.87555
G1 X115.106 Y130.362 E4.90934
G1 X114.781 Y130.372 E4.92556
G1 X114.67 Y130.374 E4.9311
G1 X105.656 Y130.374 E5.38081
G1 X104.955 Y130.364 E5.41578
G1 X104.42 Y130.316 E5.44258
G1 X103.899 Y130.19 E5.46933
G1 X103.403 Y129.987 E5.49606
G1 X102.788 Y129.6 E5.53231
G1 X101.939 Y128.936 E5.58609
G1 X101.897 Y128.902 E5.58878
G1 X101.353 Y128.463 E5.62366
G1 X99.204 Y126.829 E5.75835
G1 X96.983 Y125.237 E5.89468
G1 X94.711 Y123.703 E6.03144
G1 X92.433 Y122.259 E6.166
G1 X90.075 Y120.853 E6.30297
G1 X87.679 Y119.518 E6.43981
G1 X85.277 Y118.265 E6.57497
G1 X82.818 Y117.07 E6.71137
G1 X82.147 Y116.755 E6.74835
G1 X81.679 Y116.492 E6.77514
G1 X81.257 Y116.162 E6.80186
G1 X80.887 Y115.773 E6.82865
G1 X80.58 Y115.333 E6.85541
G1 X80.342 Y114.853 E6.88214
G1 X80.177 Y114.343 E6.90889
G1 X80.08 Y113.661 E6.94325
G1 X80.065 Y113.335 E6.95953
G1 X80.061 Y113.17 E6.96777
G1 X80.061 Y107.125 E7.26935
G1 X80.07 Y106.46 E7.30253
G1 X80.118 Y105.926 E7.32928
G1 X80.244 Y105.405 E7.35603
G1 X80.446 Y104.908 E7.38279
G1 X80.719 Y104.447 E7.40952
G1 X81.058 Y104.031 E7.43629
G1 X81.455 Y103.671 E7.46303
G0 F3600 X81.841 Y103.883
G1 F1800 X82.278 Y103.628 E7.48827
G1 X82.749 Y103.444 E7.5135
G1 X83.243 Y103.338 E7.53871
G1 X83.58 Y103.31 E7.55558
G1 X83.901 Y103.301 E7.5716
G1 X83.991 Y103.3 E7.57609
G1 X135.678 Y103.3 E10.15476
G1 X136.376 Y103.31 E10.18959
G1 X136.879 Y103.357 E10.2148
G1 X137.369 Y103.483 E10.24004
G1 X137.833 Y103.685 E10.26528
G1 X138.259 Y103.957 E10.2905
G1 X138.637 Y104.292 E10.3157
G1 X138.957 Y104.683 E10.34091
G1 X139.212 Y105.12 E10.36615
G1 X139.395 Y105.591 E10.39136
G1 X139.502 Y106.085 E10.41658
G1 X139.529 Y106.42 E10.43334
G1 X139.538 Y106.74 E10.44931
G1 X139.539 Y106.83 E10.4538
G1 X139.539 Y112.808 E10.75205
G1 X139.529 Y113.535 E10.78832
G1 X139.482 Y114.038 E10.81353
G1 X139.356 Y114.528 E10.83877
G1 X139.155 Y114.992 E10.864
G1 X138.883 Y115.418 E10.88921
G1 X138.548 Y115.797 E10.91445
G1 X138.157 Y116.117 E10.93965
G1 X137.745 Y116.361 E10.96354
G1 X137.295 Y116.583 E10.98858
G1 X137.238 Y116.61 E10.99172
G1 X135.687 Y117.338 E11.0772
G1 X133.255 Y118.565 E11.2131
G1 X130.826 Y119.878 E11.35086
G1 X128.471 Y121.238 E11.48654
G1 X126.154 Y122.666 E11.62232
G1 X123.847 Y124.178 E11.75994
G1 X121.576 Y125.762 E11.89807
G1 X119.399 Y127.371 E12.03313
G1 X116.973 Y129.279 E12.18711
G1 X116.552 Y129.559 E12.21234
G1 X116.093 Y129.77 E12.23754
G1 X115.606 Y129.905 E12.26275
G1 X115.093 Y129.962 E12.2885
G1 X114.768 Y129.972 E12.30473
G1 X114.67 Y129.974 E12.30962
G1 X105.661 Y129.974 E12.75908
G1 X104.96 Y129.964 E12.79405
G1 X104.457 Y129.917 E12.81926
G1 X103.967 Y129.791 E12.8445
G1 X103.504 Y129.589 E12.8697
G1 X103.035 Y129.285 E12.89758
G1 X102.186 Y128.621 E12.95136
G1 X102.148 Y128.591 E12.95377
G1 X101.601 Y128.15 E12.98883
G1 X99.433 Y126.501 E13.12472
G1 X97.194 Y124.896 E13.26216
G1 X94.943 Y123.377 E13.39764
G1 X92.631 Y121.91 E13.53425
G1 X90.269 Y120.503 E13.67141
G1 X87.88 Y119.171 E13.80787
G1 X85.458 Y117.908 E13.94415
G1 X82.993 Y116.71 E14.08088
G1 X82.317 Y116.393 E14.11813
G1 X81.877 Y116.143 E14.14338
G1 X81.483 Y115.826 E14.16861
G1 X81.143 Y115.452 E14.19383
G1 X80.867 Y115.029 E14.21903
G1 X80.661 Y114.567 E14.24426
G1 X80.529 Y114.079 E14.26948
G1 X80.479 Y113.643 E14.29138
G1 X80.464 Y113.317 E14.30766
G1 X80.461 Y113.17 E14.315
G1 X80.461 Y107.131 E14.61628
G1 X80.47 Y106.466 E14.64946
G1 X80.517 Y105.962 E14.67472
G1 X80.643 Y105.473 E14.69991
G1 X80.844 Y105.009 E14.72514
G1 X81.115 Y104.582 E14.75037
G1 X81.45 Y104.204 E14.77557
G1 X81.841 Y103.883 E14.80081
G1 F1500 E8.30081
;MESH:TriggerGuardPt1.STL
G0 F3600 X84.275 Y105.835
G0 X84.275 Y107.114
G0 X89.941 Y110.52
;TYPE:WALL-INNER
G1 F1500 E14.80081
G1 F1800 X89.941 Y112.1 E14.87963
G1 X85.061 Y112.1 E15.1231
G1 X85.061 Y107.9 E15.33264
G1 X96.004 Y107.9 E15.87858
G1 X96.005 Y107.9 E15.87863
G1 X97.138 Y107.9 E15.93516
G1 X96.073 Y108.287 E15.96386
G1 X89.941 Y110.52 E16.28944
G0 F3600 X100.626 Y107.441
G0 X125.183 Y107.444
G0 X129.739 Y110.919
G1 F1800 X127.06 Y108.24 E16.47846
G1 X126.72 Y107.9 E16.50245
G1 X127.2 Y107.9 E16.51533
G1 X127.202 Y107.9 E16.51543
G1 X134.939 Y107.9 E16.90143
G1 X134.939 Y112.1 E17.11097
G1 X129.739 Y112.1 E17.3704
G1 X129.739 Y110.919 E17.42932
G0 F3600 X129.339 Y111.085
G1 F1800 X126.094 Y107.84 E17.65827
G1 X125.754 Y107.5 E17.68226
G1 X126.234 Y107.5 E17.69515
G1 X126.236 Y107.5 E17.69525
G1 X135.339 Y107.5 E18.1494
G1 X135.339 Y112.5 E18.39885
G1 X129.339 Y112.5 E18.69819
G1 X129.339 Y111.085 E18.76878
G0 F3600 X125.183 Y107.444
G0 X100.626 Y107.441
G0 X90.341 Y110.8
G1 F1800 X90.341 Y112.5 E18.8536
G1 X84.661 Y112.5 E19.13697
G1 X84.661 Y107.5 E19.38642
G1 X98.273 Y107.5 E20.06553
G1 X98.274 Y107.5 E20.06558
G1 X99.407 Y107.5 E20.12211
G1 X98.342 Y107.887 E20.15081
G1 X90.341 Y110.8 E20.57561
G0 F3600 X90.741 Y111.08
G1 F1800 X90.741 Y112.9 E20.66641
G1 X84.261 Y112.9 E20.9897
G1 X84.261 Y107.1 E21.27906
G1 X100.576 Y107.1 E22.09302
G1 X100.632 Y107.1 E22.09582
G1 X125.168 Y107.1 E23.31992
G1 X125.192 Y107.1 E23.32112
G1 X135.739 Y107.1 E23.84731
G1 X135.739 Y112.9 E24.13668
G1 X128.939 Y112.9 E24.47593
G1 X128.939 Y111.251 E24.5582
G1 X125.184 Y107.496 E24.82313
G1 X125.168 Y107.48 E24.82423
G1 X100.632 Y107.48 E25.98714
G1 X100.58 Y107.499 E25.98983
G1 X90.741 Y111.08 E26.5122
G0 F3600 X91.141 Y111.36
;TYPE:WALL-OUTER
G1 F1800 X91.141 Y113.3 E26.60899
G1 X83.861 Y113.3 E26.97219
G1 X83.861 Y106.7 E27.30146
G1 X136.139 Y106.7 E29.90962
G1 X136.139 Y113.3 E30.2389
G1 X128.539 Y113.3 E30.61806
G1 X128.539 Y111.417 E30.71201
G1 X125.002 Y107.88 E30.96156
G1 X100.703 Y107.88 E32.17384
G1 X91.141 Y111.36 E32.6815
G0 F3600 X91.141 Y111.56
G0 X90.641 Y111.56
G0 X89.551 Y111.71
;TYPE:SKIN
G1 F1800 X85.451 Y111.71 E32.88605
G1 X85.451 Y108.29 E33.05668
G1 X94.926 Y108.29 E33.52939
G1 X89.551 Y110.247 E33.81477
G1 X89.551 Y111.71 E33.88776
G0 F3600 X86.073 Y111.529
G1 F1800 X85.63 Y111.086 E33.91902
G0 F3600 X85.63 Y110.52
G1 F1800 X86.638 Y111.529 E33.99017
G0 F3600 X87.204 Y111.529
G1 F1800 X85.63 Y109.955 E34.10122
G0 F3600 X85.63 Y109.389
G1 F1800 X87.77 Y111.529 E34.25221
G0 F3600 X88.336 Y111.529
G1 F1800 X85.63 Y108.823 E34.44314
G0 F3600 X85.842 Y108.469
G1 F1800 X88.901 Y111.529 E34.659
G0 F3600 X89.371 Y111.432
G1 F1800 X86.407 Y108.469 E34.86809
G0 F3600 X86.973 Y108.469
G1 F1800 X89.371 Y110.867 E35.03728
G0 F3600 X89.371 Y110.301
G1 F1800 X87.539 Y108.469 E35.16654
G0 F3600 X88.104 Y108.469
G1 F1800 X89.652 Y110.017 E35.27576
G0 F3600 X90.067 Y109.866
G1 F1800 X88.67 Y108.469 E35.37433
G0 F3600 X89.236 Y108.469
G1 F1800 X90.482 Y109.715 E35.46224
G0 F3600 X90.897 Y109.564
G1 F1800 X89.801 Y108.469 E35.53953
G0 F3600 X90.367 Y108.469
G1 F1800 X91.311 Y109.413 E35.60614
G0 F3600 X91.725 Y109.262
G1 F1800 X90.933 Y108.469 E35.66205
G0 F3600 X91.498 Y108.469
G1 F1800 X92.14 Y109.111 E35.70735
G0 F3600 X92.555 Y108.96
G1 F1800 X92.064 Y108.469 E35.74199
G0 F3600 X92.63 Y108.469
G1 F1800 X92.97 Y108.809 E35.76598
G0 F3600 X93.195 Y108.469
G1 F1800 X93.384 Y108.658 E35.77931
G0 F3600 X100.626 Y107.441
G0 X125.183 Y107.444
G0 X127.66 Y108.29
G1 F1800 X134.549 Y108.29 E36.12301
G1 X134.549 Y111.71 E36.29363
G1 X130.129 Y111.71 E36.51415
G1 X130.129 Y110.757 E36.56169
G1 X127.66 Y108.29 E36.73582
G0 F3600 X130.763 Y111.529
G1 F1800 X130.307 Y111.074 E36.76796
G0 F3600 X131.328 Y111.529
G1 F1800 X128.269 Y108.47 E36.98379
G0 F3600 X128.834 Y108.47
G1 F1800 X131.894 Y111.529 E37.19965
G0 F3600 X132.46 Y111.529
G1 F1800 X129.4 Y108.47 E37.41552
G0 F3600 X129.966 Y108.47
G1 F1800 X133.025 Y111.529 E37.63135
G0 F3600 X133.591 Y111.529
G1 F1800 X130.531 Y108.47 E37.84721
G0 F3600 X131.097 Y108.47
G1 F1800 X134.157 Y111.529 E38.06308
G0 F3600 X134.368 Y111.175
G1 F1800 X131.663 Y108.47 E38.25393
G0 F3600 X132.228 Y108.47
G1 F1800 X134.368 Y110.609 E38.40488
G0 F3600 X134.368 Y110.044
G1 F1800 X132.794 Y108.47 E38.51594
G0 F3600 X133.36 Y108.47
G1 F1800 X134.368 Y109.478 E38.58706
G0 F3600 X134.368 Y108.912
G1 F1800 X133.926 Y108.47 E38.61824
G1 F1500 E32.11824
;MESH:TriggerGuardPt2.STL
G0 F3600 X125.667 Y107.951
G0 X124.759 Y108.86
G0 X119.799 Y114.467
G0 X118.533 Y114.639
G0 X117.681 Y115.938
;TYPE:WALL-INNER
G1 F1500 E38.61824
G1 F1800 X117.249 Y115.424 E38.65174
G1 X117.839 Y115.424 E38.68117
G1 X117.807 Y115.946 E38.70727
G1 X117.788 Y116.232 E38.72157
G1 X117.681 Y115.938 E38.72483
G0 F3600 X117.355 Y118.276
G0 X117.046 Y119.129
G0 X113.6 Y123.473
G1 F1800 X113.6 Y125.374 E38.81967
G1 X106.4 Y125.374 E39.17888
G1 X106.4 Y123.473 E39.27372
G1 X105.649 Y121.819 E39.36434
G1 X105.646 Y121.811 E39.36477
G1 X105.434 Y121.488 E39.38404
G1 X105.393 Y121.426 E39.38775
G1 X105.5 Y121.445 E39.3892
G1 X105.578 Y121.432
G1 X105.586 Y121.431 E39.3896
G1 X106.756 Y121.225 E39.44887
G1 X107.859 Y120.587 E39.51245
G1 X108.681 Y119.61 E39.57615
G1 X109.116 Y118.41 E39.63983
G1 X109.116 Y117.138 E39.70329
G1 X108.681 Y115.938 E39.76697
G1 X108.525 Y115.752 E39.77908
G1 X108.249 Y115.424 E39.80046
G1 X108.677 Y115.424 E39.81214
G1 X108.678 Y115.424 E39.81219
G1 X111.322 Y115.424 E39.9441
G1 X111.323 Y115.424 E39.94415
G1 X111.751 Y115.424 E39.9655
G1 X111.475 Y115.752 E39.97719
G1 X111.319 Y115.938 E39.98931
G1 X110.884 Y117.138 E40.05299
G1 X110.884 Y118.41 E40.11645
G1 X111.319 Y119.61 E40.18013
G1 X112.141 Y120.587 E40.24383
G1 X113.244 Y121.225 E40.3074
G1 X114.412 Y121.43 E40.36656
G1 X114.42 Y121.431 E40.36696
G1 X114.5 Y121.445 E40.37101
G1 X114.607 Y121.426 E40.37644
G1 X114.567 Y121.487
G1 X114.354 Y121.811 E40.39131
G1 X114.351 Y121.819 E40.39173
G1 X113.6 Y123.473 E40.48236
G0 F3600 X104.509 Y120.498
G0 X103.638 Y119.995
G0 X102.989 Y119.224
G0 X102.711 Y118.457
G0 X102.319 Y115.938
G1 F1800 X102.216 Y116.222 E40.49743
G1 X102.196 Y115.948 E40.4992
G1 X102.158 Y115.44 E40.52462
G1 X102.16 Y115.424 E40.52542
G1 X102.751 Y115.424 E40.55491
G1 X102.319 Y115.938 E40.5884
G0 F3600 X102.671 Y116.141
G1 F1800 X102.363 Y116.99 E40.63346
G1 X102.284 Y117.208 E40.64503
G1 X102.284 Y117.672 E40.66818
G1 X102.284 Y117.911 E40.6801
G1 X102.157 Y117.672 E40.68321
G1 X102.044 Y117.277 E40.69224
G1 X101.98 Y117.054 E40.70174
G1 X101.841 Y116.573 E40.72672
G1 X101.756 Y115.427 E40.78405
G1 X101.809 Y115.024 E40.80433
G1 X103.239 Y115.024 E40.87567
G1 X103.402 Y115.024 E40.8838
G1 X103.831 Y115.024 E40.9052
G1 X103.402 Y115.272 E40.91454
G1 X103.298 Y115.396 E40.92121
G1 X102.671 Y116.141 E40.96979
G0 F3600 X102.645 Y118.276
G0 X102.989 Y119.224
G0 X103.638 Y119.995
G0 X104.421 Y120.447
G0 X114 Y123.559
G1 F1800 X114 Y125.774 E41.0803
G1 X106 Y125.774 E41.47942
G1 X106 Y123.559 E41.58993
G1 X105.295 Y122.005 E41.67506
G1 X104.804 Y121.258 E41.71966
G1 X104.551 Y120.872 E41.74269
G1 X105.006 Y120.952 E41.75515
G1 X105.5 Y121.039 E41.78017
G1 X106.617 Y120.843 E41.83675
G1 X107.598 Y120.276 E41.89328
G1 X108.329 Y119.407 E41.94993
G1 X108.716 Y118.34 E42.00656
G1 X108.716 Y117.208 E42.06304
G1 X108.329 Y116.141 E42.11966
G1 X107.702 Y115.396 E42.16824
G1 X107.598 Y115.272 E42.17632
G1 X107.169 Y115.024 E42.20104
G1 X107.598 Y115.024 E42.20707
G1 X107.761 Y115.024 E42.21381
G1 X112.239 Y115.024 E42.43722
G1 X112.402 Y115.024 E42.44535
G1 X112.831 Y115.024 E42.46675
G1 X112.402 Y115.272 E42.47609
G1 X112.298 Y115.396 E42.48276
G1 X111.671 Y116.141 E42.53134
G1 X111.284 Y117.208 E42.58797
G1 X111.284 Y118.34 E42.64444
G1 X111.671 Y119.407 E42.70107
G1 X112.402 Y120.276 E42.75772
G1 X113.383 Y120.843 E42.81425
G1 X114.5 Y121.039 E42.87083
G1 X114.994 Y120.952 E42.89586
G1 X115.449 Y120.872 E42.9189
G1 X115.196 Y121.258 E42.93135
G1 X114.705 Y122.005 E42.97595
G1 X114 Y123.559 E43.06109
G0 F3600 X117.011 Y119.224
G0 X117.32 Y118.371
G0 X117.329 Y116.141
G1 F1800 X116.702 Y115.396 E43.10966
G1 X116.598 Y115.272 E43.11774
G1 X116.169 Y115.024 E43.14246
G1 X116.598 Y115.024 E43.14849
G1 X116.761 Y115.024 E43.15523
G1 X118.167 Y115.024 E43.22538
G1 X118.197 Y115.024 E43.22687
G1 X118.243 Y115.364 E43.24399
G1 X118.242 Y115.393 E43.24544
G1 X118.17 Y116.52 E43.30178
G1 X118.02 Y117.055 E43.3295
G1 X117.959 Y117.276 E43.34094
G1 X117.864 Y117.617 E43.3586
G1 X117.716 Y117.904 E43.37471
G1 X117.716 Y117.617 E43.37699
G1 X117.716 Y117.208 E43.38798
G1 X117.638 Y116.992 E43.39742
G1 X117.329 Y116.141 E43.44258
G0 F3600 X117.355 Y118.276
G0 X117.063 Y119.254
G0 X116.977 Y119.204
G1 F1800 X117.055 Y118.987 E43.45409
G1 X117.316 Y118.27 E43.49216
G1 X117.316 Y117.278 E43.54165
G1 X116.977 Y116.344 E43.59122
G1 X116.337 Y115.583 E43.64083
G1 X115.478 Y115.087 E43.69031
G1 X115.114 Y115.023 E43.70875
G1 X114.5 Y114.915 E43.73986
G1 X113.886 Y115.023 E43.77096
G1 X113.522 Y115.087 E43.7894
G1 X112.663 Y115.583 E43.83888
G1 X112.023 Y116.344 E43.88849
G1 X111.684 Y117.278 E43.93806
G1 X111.684 Y118.27 E43.98755
G1 X112.023 Y119.204 E44.03713
G1 X112.663 Y119.965 E44.08673
G1 X113.522 Y120.461 E44.13622
G1 X114.5 Y120.633 E44.18576
G1 X115.478 Y120.461 E44.2353
G1 X116.11 Y120.096 E44.27172
G1 X116.337 Y119.965 E44.28479
G1 X116.619 Y119.629 E44.30668
G1 X116.977 Y119.204 E44.3344
G0 F3600 X117.063 Y119.254
G0 X115.85 Y120.919
G0 X115.179 Y121.939
G0 X114.303 Y123.624
G0 X114.4 Y123.645
G1 F1800 X114.4 Y126.174 E44.46057
G1 X105.6 Y126.174 E44.89961
G1 X105.6 Y123.645 E45.02578
G1 X104.944 Y122.199 E45.105
G1 X104.119 Y120.943 E45.17997
G1 X103.603 Y120.372 E45.21836
G1 X103.427 Y120.177 E45.23147
G1 X103.155 Y119.876 E45.25171
G1 X102.773 Y119.41 E45.28177
G1 X102.631 Y119.238 E45.2929
G1 X102.36 Y118.908 E45.3142
